build/category/TrophyOutline.svg

<svg xmlns="http://www.w3.org/2000/svg" fill="none" viewBox="0 0 24 24" focusable="false"><path d="M0 0H24V24H0z"/><path fill="#74767B" fill-rule="evenodd" d="M17.0408 4.00028L17.0168 4L7.01676 4L6.99274 4.00028L4.87416 4.00028C3.83073 4.00028 2.98486 4.84615 2.98486 5.88958L2.98486 6.50708C2.98486 8.40964 4.39047 10.0051 6.25182 10.2651C6.90875 12.5388 8.87439 14.2572 11.2801 14.5517L11.2801 17L10.5168 17C8.85991 17 7.51676 18.3431 7.51676 20L7.51676 20.3C7.51676 20.6866 7.83016 21 8.21676 21L15.8168 21C16.2034 21 16.5168 20.6866 16.5168 20.3L16.5168 20C16.5168 18.3431 15.1736 17 13.5168 17L12.5801 17L12.5801 14.5704C15.0857 14.3371 17.1441 12.5631 17.7987 10.2051C19.6393 9.8824 21.0151 8.27832 21.0151 6.37163L21.0151 5.87681C21.0151 4.84043 20.1749 4.00028 19.1386 4.00028L17.0408 4.00028ZM7.31676 5.3L7.31676 8.5965C7.31676 11.1922 9.42102 13.2965 12.0168 13.2965C14.6125 13.2965 16.7168 11.1922 16.7168 8.5965L16.7168 5.30028L16.6911 5.30028L16.6718 5.3L7.31676 5.3ZM18.0168 5.30028L18.0168 8.5965C18.0168 8.6669 18.0155 8.73701 18.0131 8.80683C19.0118 8.44203 19.7151 7.48418 19.7151 6.37163L19.7151 5.87681C19.7151 5.5584 19.457 5.30028 19.1386 5.30028L18.0168 5.30028ZM6.01676 8.5965L6.01676 5.30028L4.87416 5.30028C4.5487 5.30028 4.28486 5.56412 4.28486 5.88958L4.28486 6.50708C4.28486 7.61413 5.00875 8.56299 6.02357 8.88498C6.01905 8.78938 6.01676 8.69321 6.01676 8.5965ZM8.84315 19.7C8.98484 18.9042 9.68024 18.3 10.5168 18.3L13.5168 18.3C14.3533 18.3 15.0487 18.9042 15.1904 19.7L8.84315 19.7Z"/></svg>

<svg xmlns="http://www.w3.org/2000/svg" fill="none" viewBox="0 0 24 24" focusable="false"><path fill="#74767B" fill-rule="evenodd" d="M17.04 4H4.87c-1.04 0-1.89.84-1.89 1.88v.62c0 1.9 1.41 3.5 3.27 3.76a6.01 6.01 0 0 0 5.03 4.29V17h-.77c-1.66 0-3 1.34-3 3v.29c0 .39.32.71.7.71h7.6c.39 0 .7-.32.7-.71V20c0-1.66-1.34-3-3-3h-.93v-2.43c2.5-.24 4.56-2.01 5.21-4.37a3.896 3.896 0 0 0 3.22-3.83v-.5c0-1.03-.84-1.87-1.88-1.87zM7.31 5.29v3.3a4.7 4.7 0 0 0 9.4 0V5.3h-.02l-.02-.01zm10.7.01v3.5c1-.36 1.7-1.32 1.7-2.43v-.5c0-.32-.26-.57-.58-.57zm-12 3.29V5.3H4.87c-.33 0-.59.26-.59.58v.62c0 1.11.72 2.06 1.74 2.38-.01-.1-.01-.19-.01-.29M8.84 19.7c.14-.8.84-1.41 1.67-1.41h3c.84 0 1.53.61 1.68 1.41z"/></svg>
